svg/u1f9f0.svg

<svg viewBox="0 0 128 128" xmlns="http://www.w3.org/2000/svg">
  <g>
    <g>
      <polygon points="116.87,32.29 11.13,32.29 4,49.96 124,49.96 " fill="#F44336"/>
      <path d="M99.9,26.61H28.1c-1.34,0-2.68,0.24-3.93,0.72l-13.05,4.96h105.75l-13.05-4.96 C102.57,26.85,101.24,26.61,99.9,26.61z" fill="#FF7555"/>
      <path d="M119.97,117.61H8.03c-2.23,0-4.03-1.8-4.03-4.03V49.96h120v63.62 C124,115.81,122.2,117.61,119.97,117.61z" fill="#C62828"/>
      <line fill="none" stroke="#A80707" stroke-width="2.1329" stroke-miterlimit="10" x1="4" x2="124" y1="70.1" y2="70.1"/>
      <path d="M25.01,70.1" fill="none" stroke="#332424" stroke-width="2.1329" stroke-miterlimit="10"/>
      <g>
        <g>
          <path d="M41.05,65.28H24.53c-0.94,0-1.71,0.66-1.71,1.47v9.71c0,0.81,0.76,1.47,1.71,1.47h2.45v5.06 c0,2.16,2.03,3.91,4.54,3.91h2.55c2.5,0,4.54-1.75,4.54-3.91v-5.06h2.45c0.94,0,1.71-0.66,1.71-1.47v-9.71 C42.75,65.94,41.99,65.28,41.05,65.28z" fill="#A80707"/>
          <path d="M39.88,75.92H25.69c-0.6,0-1.08-0.48-1.08-1.08V64.58c0-0.6,0.48-1.08,1.08-1.08h14.18 c0.6,0,1.08,0.48,1.08,1.08v10.26C40.96,75.44,40.47,75.92,39.88,75.92z" fill="#558EA0"/>
          <line fill="none" stroke="#332424" stroke-width="2.8301" stroke-miterlimit="10" x1="28.02" x2="37.55" y1="70.03" y2="70.03"/>
          <path d="M37.55,68.62h-9.53v-5.31c0-1.58,1.28-2.87,2.87-2.87h3.8c1.58,0,2.87,1.28,2.87,2.87V68.62z" fill="#82AEC0"/>
          <path d="M28.02,71.28h9.53v10.58c0,1.58-1.28,2.87-2.87,2.87h-3.8c-1.58,0-2.87-1.28-2.87-2.87V71.28z" fill="#82AEC0"/>
          <path d="M35.83,79.59c0.43,0,0.94,0.36,1.06,1c0.06,0.36-0.14,1.1-0.42,1.34 c-0.51,0.43-1.19,0.71-1.9,0.88c-1.1,0.27-2.3,0.32-3.39,0.03c-1.09-0.28-2.23-0.83-2.56-1.74 C28.12,79.71,29.99,79.61,35.83,79.59z" fill="#A1D5E5"/>
        </g>
        <g>
          <path d="M103.47,65.28H86.95c-0.94,0-1.71,0.66-1.71,1.47v9.71c0,0.81,0.76,1.47,1.71,1.47h2.45v5.06 c0,2.16,2.03,3.91,4.54,3.91h2.55c2.5,0,4.54-1.75,4.54-3.91v-5.06h2.45c0.94,0,1.71-0.66,1.71-1.47v-9.71 C105.18,65.94,104.42,65.28,103.47,65.28z" fill="#A80707"/>
          <path d="M102.31,75.92H88.12c-0.6,0-1.08-0.48-1.08-1.08V64.58c0-0.6,0.48-1.08,1.08-1.08h14.18 c0.6,0,1.08,0.48,1.08,1.08v10.26C103.38,75.44,102.9,75.92,102.31,75.92z" fill="#558EA0"/>
          <line fill="none" stroke="#332424" stroke-width="2.8301" stroke-miterlimit="10" x1="90.45" x2="99.98" y1="70.03" y2="70.03"/>
          <path d="M99.98,68.62h-9.53v-5.31c0-1.58,1.28-2.87,2.87-2.87h3.8c1.58,0,2.87,1.28,2.87,2.87V68.62z" fill="#82AEC0"/>
          <path d="M90.45,71.28h9.53v10.58c0,1.58-1.28,2.87-2.87,2.87h-3.8c-1.58,0-2.87-1.28-2.87-2.87V71.28z" fill="#82AEC0"/>
          <path d="M98.55,79.59c0.3,0.01,0.85,0.1,1.05,0.69s-0.2,1.21-0.71,1.64s-1.19,0.71-1.9,0.88 c-1.1,0.27-2.3,0.32-3.39,0.03c-1.09-0.28-2.07-0.9-2.56-1.74C90.26,79.76,92.87,79.35,98.55,79.59z" fill="#A1D5E5"/>
        </g>
      </g>
      <path d="M90.53,27.05c-0.47-0.63-2.01-1.27-2.46-1.53c-3.01-1.79-2.7-6.72-4.72-9.92 c-1.8-2.86-5.01-5.2-8.39-5.2c0,0-4.63,0-9.32,0c-0.08,0-0.15,0-0.23,0c-4.7,0-9.32,0-9.32,0c-3.38,0-6.59,2.35-8.39,5.2 c-2.02,3.2-1.71,8.13-4.72,9.92c-0.44,0.26-1.99,0.91-2.46,1.53c-0.58,0.78,0,1.6,0,1.6s4.47,0,5.46,0c2.67,0,4.17-4.49,4.4-5.1 c0.91-2.5,2.57-6.19,5.71-6.19c0,0,4.63,0,9.32,0c0.08,0,0.15,0,0.23,0c4.7,0,9.32,0,9.32,0c3.14,0,4.8,3.7,5.71,6.19 c0.22,0.61,1.72,5.1,4.4,5.1c0.99,0,5.46,0,5.46,0S91.11,27.83,90.53,27.05z" fill="#424242"/>
      <path d="M51.22,13.39c1.43-1.19,3.28-1.9,5.14-1.88c0.51,0.01,1.04,0.07,1.47,0.35 c0.43,0.28,0.73,0.81,0.6,1.31c-0.14,0.53-0.69,0.84-1.2,1.04c-1.85,0.72-3.99,0.88-5.46,2.2c-1.01,0.91-1.54,2.22-2.26,3.37 c-0.35,0.56-0.82,1.13-1.48,1.2c-0.23,0.02-0.48-0.03-0.63-0.2c-0.26-0.3-0.1-0.76,0.07-1.11c0.55-1.14,0.87-2.34,1.46-3.45 C49.55,15.08,50.36,14.3,51.22,13.39z" fill="#616161"/>
    </g>
    <path d="M33.2,63.45c-1.28,0.05-2.52,0.72-3.16,1.72c-0.15,0.23-0.36,0.51-0.64,0.45 c-0.22-0.05-0.31-0.28-0.36-0.48c-0.21-0.84-0.28-1.81,0.21-2.58c0.51-0.81,1.5-1.28,2.46-1.4c1.94-0.23,3.38-0.32,3.71,0.89 C35.81,63.48,34.22,63.41,33.2,63.45z" fill="#A1D5E5"/>
    <path d="M95.58,63.45c-1.28,0.05-2.52,0.72-3.16,1.72c-0.15,0.23-0.36,0.51-0.64,0.45 c-0.22-0.05-0.31-0.28-0.36-0.48c-0.21-0.84-0.28-1.81,0.21-2.58c0.51-0.81,1.5-1.28,2.46-1.4c1.94-0.23,3.38-0.32,3.71,0.89 C98.2,63.48,96.6,63.41,95.58,63.45z" fill="#A1D5E5"/>
  </g>
</svg>

<svg viewBox="0 0 128 128" xmlns="http://www.w3.org/2000/svg">
  <defs/>
  <path d="M116.87,32.29 L11.13,32.29 L4,49.96 L124,49.96 Z" fill="#F44336"/>
  <path d="M99.9,26.61 L28.1,26.61 C26.76,26.61 25.42,26.85 24.17,27.33 L11.12,32.29 L116.87,32.29 L103.82,27.33 C102.57,26.85 101.24,26.61 99.9,26.61 Z" fill="#FF7555"/>
  <path d="M119.97,117.61 L8.03,117.61 C5.8,117.61 4,115.81 4,113.58 L4,49.96 L124,49.96 L124,113.58 C124,115.81 122.2,117.61 119.97,117.61 Z" fill="#C62828"/>
  <path d="M4,69.034 L124,69.034 L124,71.166 L4,71.166 L4,69.034 Z" fill="#A80707"/>
  <path d="M41.05,65.28 L24.53,65.28 C23.59,65.28 22.82,65.94 22.82,66.75 L22.82,76.46 C22.82,77.27 23.58,77.93 24.53,77.93 L26.98,77.93 L26.98,82.99 C26.98,85.15 29.01,86.9 31.52,86.9 L34.07,86.9 C36.57,86.9 38.61,85.15 38.61,82.99 L38.61,77.93 L41.06,77.93 C42,77.93 42.77,77.27 42.77,76.46 L42.77,66.75 C42.75,65.94 41.99,65.28 41.05,65.28 Z" fill="#A80707"/>
  <path d="M39.88,75.92 L25.69,75.92 C25.09,75.92 24.61,75.44 24.61,74.84 L24.61,64.58 C24.61,63.98 25.09,63.5 25.69,63.5 L39.87,63.5 C40.47,63.5 40.95,63.98 40.95,64.58 L40.95,74.84 C40.96,75.44 40.47,75.92 39.88,75.92 Z" fill="#558EA0"/>
  <path d="M28.02,68.615 L37.55,68.615 L37.55,71.445 L28.02,71.445 L28.02,68.615 Z" fill="#332424"/>
  <path d="M37.55,68.62 L28.02,68.62 L28.02,63.31 C28.02,61.73 29.3,60.44 30.89,60.44 L34.69,60.44 C36.27,60.44 37.56,61.72 37.56,63.31 L37.56,68.62 Z" fill="#82AEC0"/>
  <path d="M28.02,71.28 L37.55,71.28 L37.55,81.86 C37.55,83.44 36.27,84.73 34.68,84.73 L30.88,84.73 C29.3,84.73 28.01,83.45 28.01,81.86 L28.01,71.28 Z" fill="#82AEC0"/>
  <path d="M35.83,79.59 C36.26,79.59 36.77,79.95 36.89,80.59 C36.95,80.95 36.75,81.69 36.47,81.93 C35.96,82.36 35.28,82.64 34.57,82.81 C33.47,83.08 32.27,83.13 31.18,82.84 C30.09,82.56 28.95,82.01 28.62,81.1 C28.12,79.71 29.99,79.61 35.83,79.59 Z" fill="#A1D5E5"/>
  <path d="M103.47,65.28 L86.95,65.28 C86.01,65.28 85.24,65.94 85.24,66.75 L85.24,76.46 C85.24,77.27 86,77.93 86.95,77.93 L89.4,77.93 L89.4,82.99 C89.4,85.15 91.43,86.9 93.94,86.9 L96.49,86.9 C98.99,86.9 101.03,85.15 101.03,82.99 L101.03,77.93 L103.48,77.93 C104.42,77.93 105.19,77.27 105.19,76.46 L105.19,66.75 C105.18,65.94 104.42,65.28 103.47,65.28 Z" fill="#A80707"/>
  <path d="M102.31,75.92 L88.12,75.92 C87.52,75.92 87.04,75.44 87.04,74.84 L87.04,64.58 C87.04,63.98 87.52,63.5 88.12,63.5 L102.3,63.5 C102.9,63.5 103.38,63.98 103.38,64.58 L103.38,74.84 C103.38,75.44 102.9,75.92 102.31,75.92 Z" fill="#558EA0"/>
  <path d="M90.45,68.615 L99.98,68.615 L99.98,71.445 L90.45,71.445 L90.45,68.615 Z" fill="#332424"/>
  <path d="M99.98,68.62 L90.45,68.62 L90.45,63.31 C90.45,61.73 91.73,60.44 93.32,60.44 L97.12,60.44 C98.7,60.44 99.99,61.72 99.99,63.31 L99.99,68.62 Z" fill="#82AEC0"/>
  <path d="M90.45,71.28 L99.98,71.28 L99.98,81.86 C99.98,83.44 98.7,84.73 97.11,84.73 L93.31,84.73 C91.73,84.73 90.44,83.45 90.44,81.86 L90.44,71.28 Z" fill="#82AEC0"/>
  <path d="M98.55,79.59 C98.85,79.6 99.4,79.69 99.6,80.28 C99.8,80.87 99.4,81.49 98.89,81.92 C98.38,82.35 97.7,82.63 96.99,82.8 C95.89,83.07 94.69,83.12 93.6,82.83 C92.51,82.55 91.53,81.93 91.04,81.09 C90.26,79.76 92.87,79.35 98.55,79.59 Z" fill="#A1D5E5"/>
  <path d="M90.53,27.05 C90.06,26.42 88.52,25.78 88.07,25.52 C85.06,23.73 85.37,18.8 83.35,15.6 C81.55,12.74 78.34,10.4 74.96,10.4 C74.96,10.4 70.33,10.4 65.64,10.4 C65.56,10.4 65.49,10.4 65.41,10.4 C60.71,10.4 56.09,10.4 56.09,10.4 C52.71,10.4 49.5,12.75 47.7,15.6 C45.68,18.8 45.99,23.73 42.98,25.52 C42.54,25.78 40.99,26.43 40.52,27.05 C39.94,27.83 40.52,28.65 40.52,28.65 C40.52,28.65 44.99,28.65 45.98,28.65 C48.65,28.65 50.15,24.16 50.38,23.55 C51.29,21.05 52.95,17.36 56.09,17.36 C56.09,17.36 60.72,17.36 65.41,17.36 C65.49,17.36 65.56,17.36 65.64,17.36 C70.34,17.36 74.96,17.36 74.96,17.36 C78.1,17.36 79.76,21.06 80.67,23.55 C80.89,24.16 82.39,28.65 85.07,28.65 C86.06,28.65 90.53,28.65 90.53,28.65 C90.53,28.65 91.11,27.83 90.53,27.05 Z" fill="#424242"/>
  <path d="M51.22,13.39 C52.65,12.2 54.5,11.49 56.36,11.51 C56.87,11.52 57.4,11.58 57.83,11.86 C58.26,12.14 58.56,12.67 58.43,13.17 C58.29,13.7 57.74,14.01 57.23,14.21 C55.38,14.93 53.24,15.09 51.77,16.41 C50.76,17.32 50.23,18.63 49.51,19.78 C49.16,20.34 48.69,20.91 48.03,20.98 C47.8,21 47.55,20.95 47.4,20.78 C47.14,20.48 47.3,20.02 47.47,19.67 C48.02,18.53 48.34,17.33 48.93,16.22 C49.55,15.08 50.36,14.3 51.22,13.39 Z" fill="#616161"/>
  <path d="M33.2,63.45 C31.92,63.5 30.68,64.17 30.04,65.17 C29.89,65.4 29.68,65.68 29.4,65.62 C29.18,65.57 29.09,65.34 29.04,65.14 C28.83,64.3 28.76,63.33 29.25,62.56 C29.76,61.75 30.75,61.28 31.71,61.16 C33.65,60.93 35.09,60.84 35.42,62.05 C35.81,63.48 34.22,63.41 33.2,63.45 Z" fill="#A1D5E5"/>
  <path d="M95.58,63.45 C94.3,63.5 93.06,64.17 92.42,65.17 C92.27,65.4 92.06,65.68 91.78,65.62 C91.56,65.57 91.47,65.34 91.42,65.14 C91.21,64.3 91.14,63.33 91.63,62.56 C92.14,61.75 93.13,61.28 94.09,61.16 C96.03,60.93 97.47,60.84 97.8,62.05 C98.2,63.48 96.6,63.41 95.58,63.45 Z" fill="#A1D5E5"/>
</svg>
